assets/icons/Outline/Seat.svg

<svg width="24" height="24" viewBox="0 0 24 24" fill="none" xmlns="http://www.w3.org/2000/svg">
<g clip-path="url(#clip0_10_1670)">
<path d="M17.7552 11.1881L16.4087 3.42574C16.2503 2.15842 15.2206 2 15.2206 2H9.12158C8.17109 2.11881 7.89386 3.0297 7.89386 3.0297L6.48792 11.2475C6.40871 12.7129 7.79485 12.8119 7.79485 12.8119H16.3691C17.9929 12.6535 17.7552 11.1881 17.7552 11.1881ZM7.94693 11.3465L9.3196 3.50495H14.9038L16.2899 11.3465H7.94693Z" fill="#AFB7C4"/>
<path d="M21.2206 12.1584C20.9038 11.3267 19.9137 11.6435 19.9137 11.6435C17.8147 12.2376 17.9335 14.1782 17.9335 14.1782C17.2998 13.7029 16.7453 13.7029 16.7453 13.7029L7.91366 13.6633C7.00277 13.6633 6.40871 14.099 6.40871 14.099L6.3097 14.1584C6.34931 13.4059 5.87406 12.693 5.87406 12.693C5.04238 11.5841 4.09188 11.6237 4.09188 11.6237C3.10178 11.4653 3.00277 12.297 3.00277 12.297C2.94337 13.2079 3.81465 13.2475 3.81465 13.2475C4.64634 13.2871 4.64634 14.0055 4.64634 14.0055V16.3366V16.8214C4.96317 18.2566 6.3097 18.2376 6.3097 18.2376H11.2998V20.3366H8.56713C8.10772 20.3366 7.73544 20.7089 7.73544 21.1683C7.73544 21.6277 8.10772 22 8.56713 22H11.2998H12.9632H15.6562C16.1156 22 16.4879 21.6277 16.4879 21.1683C16.4879 20.7089 16.1156 20.3366 15.6562 20.3366H12.9632V18.2376H17.9929C17.9929 18.2376 19.2206 18.2772 19.577 16.8119L19.6166 16.3366V13.9738C19.676 13.3338 20.2701 13.2673 20.2701 13.2673L20.7057 13.1881C21.4582 12.8713 21.2206 12.1584 21.2206 12.1584ZM18.1117 16.3366V16.6364L17.9929 16.7723H12.9632H11.2998H6.3097L6.15129 16.6313V16.3366V15.9457L7.28 15.3267C7.51762 15.1287 7.75525 15.1683 7.75525 15.1683H16.5077C16.7453 15.1287 16.9038 15.2871 16.9038 15.2871L18.1117 16.122V16.3366Z" fill="#AFB7C4"/>
</g>
<defs>
<clipPath id="clip0_10_1670">
<rect width="18.2562" height="20" fill="white" transform="translate(3 2)"/>
</clipPath>
</defs>
</svg>

<?xml version="1.0" encoding="utf-8"?>
<!-- Generator: Adobe Illustrator 25.0.0, SVG Export Plug-In . SVG Version: 6.00 Build 0)  -->
<svg version="1.1" id="Layer_1" xmlns="http://www.w3.org/2000/svg" xmlns:xlink="http://www.w3.org/1999/xlink" x="0px" y="0px"
	 viewBox="0 0 24 24" style="enable-background:new 0 0 24 24;" xml:space="preserve">
<style type="text/css">
	.st0{clip-path:url(#SVGID_2_);}
	.st1{fill:#AFB7C4;}
</style>
<g>
	<defs>
		<rect id="SVGID_1_" x="3" y="2" width="18.3" height="20"/>
	</defs>
	<clipPath id="SVGID_2_">
		<use xlink:href="#SVGID_1_"  style="overflow:visible;"/>
	</clipPath>
	<g class="st0">
		<path class="st1" d="M17.8,11.2l-1.3-7.8C16.3,2.2,15.2,2,15.2,2H9.1c-1,0.1-1.2,1-1.2,1l-1.4,8.2c-0.1,1.5,1.3,1.6,1.3,1.6h8.6
			C18,12.7,17.8,11.2,17.8,11.2z M7.9,11.3l1.4-7.8h5.6l1.4,7.8H7.9z"/>
		<path class="st1" d="M21.2,12.2c-0.3-0.8-1.3-0.5-1.3-0.5c-2.1,0.6-2,2.5-2,2.5c-0.6-0.5-1.2-0.5-1.2-0.5l-8.8,0
			c-0.9,0-1.5,0.4-1.5,0.4l-0.1,0.1c0-0.8-0.4-1.5-0.4-1.5c-0.8-1.1-1.8-1.1-1.8-1.1c-1-0.2-1.1,0.7-1.1,0.7c-0.1,0.9,0.8,1,0.8,1
			c0.8,0,0.8,0.8,0.8,0.8v2.3v0.5c0.3,1.4,1.7,1.4,1.7,1.4h5v2.1H8.6c-0.5,0-0.8,0.4-0.8,0.8S8.1,22,8.6,22h2.7H13h2.7
			c0.5,0,0.8-0.4,0.8-0.8s-0.4-0.8-0.8-0.8H13v-2.1h5c0,0,1.2,0,1.6-1.4l0-0.5V14c0.1-0.6,0.7-0.7,0.7-0.7l0.4-0.1
			C21.5,12.9,21.2,12.2,21.2,12.2z M18.1,16.3v0.3L18,16.8h-5h-1.7h-5l-0.2-0.1v-0.3v-0.4l1.1-0.6c0.2-0.2,0.5-0.2,0.5-0.2h8.8
			c0.2,0,0.4,0.1,0.4,0.1l1.2,0.8V16.3z"/>
	</g>
</g>
</svg>
